X: 51
T:Dinny O'Brien's
M:C|
L:1/8
Q:200
S:THSP
R:reel
K:Dmix
"D"fd (3ddd ABcA|dcAd cAGE|D2 (3FED ADFD|"C"(3EFG AB c2eg|
"D"fd (3ddd ABcA|dcAd cAGE|D2 AD (3EFG AB
|1 "C"cAGE "D"EDDg:|2 "C"cAGE "D"EDD2||:
"D"fd (3ddd defg|ad (3ddd adfd|"C"ec (3ccc cdef|~g3f gfed|
"D"fd (3ddd ABcA|dcAd cAGE|D2 AD (3EFG AB
|1 "C"cAGE "D"EDD2:|2 "C"cAGE "D"EDDg|]
